X: 29
T: VALSE A PASCAL
M: 3/4
L: 1/8
Q:1/4=80
K:Eb
|Gce g3|def edc|Gce geg|agf d3|
G=Bd f2f|def edc|agf def|edG c3|!
|:g/2e/2c/2g/2e/2c/2 g/2e/2c/2g/2e/2c/2|g/2e/2c/2g/2e/2c/2 ed/2e/2d/2c/2
|g/2e/2c/2g/2e/2c/2 g/2e/2c/2g/2e/2c/2|aga d3:|
a/2g/2f/2e/2d/2e/2 cc2|
